src/lib/packages/icons/src/assets/line/croissant.svg

<svg width="24" height="24" viewBox="0 0 24 24" fill="none" xmlns="http://www.w3.org/2000/svg">
<path d="M21.41 13.2501C21.63 12.3501 21.7501 11.4201 21.7501 10.5001C21.7501 7.70005 20.7101 5.01004 18.8201 2.93004C18.2001 2.26004 17.2701 2.06004 16.4501 2.43004C15.6101 2.80004 15.1201 3.64005 15.2001 4.56005C15.2301 4.87005 15.2501 5.18006 15.2501 5.49006C15.2501 6.72006 15.02 7.89005 14.6 8.97005C13.85 8.94005 13.1 9.21005 12.54 9.77005L9.79003 12.5201C9.23003 13.0801 8.96004 13.8201 8.99004 14.5701C7.60004 15.1101 6.06007 15.3201 4.58007 15.1901C3.64007 15.1001 2.82005 15.5901 2.44005 16.4401C2.07005 17.2701 2.27005 18.2 2.94005 18.81C5.02005 20.7 7.70005 21.7301 10.5001 21.7301C11.4101 21.7301 12.3301 21.6101 13.2501 21.3801C13.5601 21.5501 13.8901 21.67 14.2501 21.71C14.3601 21.72 14.4601 21.7301 14.5701 21.7301C15.3001 21.7301 15.9901 21.4501 16.5101 20.9201L20.9501 16.48C21.5501 15.88 21.83 15.06 21.74 14.23C21.7 13.87 21.58 13.5401 21.41 13.2401V13.2501ZM16.7001 4.43004C16.6601 4.01004 16.97 3.84005 17.06 3.80005C17.17 3.75005 17.46 3.66005 17.72 3.94005C19.35 5.74005 20.2601 8.07005 20.2601 10.5001C20.2601 11.0001 20.2101 11.5 20.1301 12.01L16.0301 9.45005C16.5101 8.20005 16.7601 6.88005 16.7601 5.50005C16.7601 5.14005 16.7401 4.79004 16.7101 4.43004H16.7001ZM3.95006 17.7201C3.67006 17.4601 3.76005 17.17 3.81005 17.06C3.85005 16.97 4.01005 16.66 4.44005 16.7C6.11005 16.85 7.85006 16.62 9.45006 16.01L12.0201 20.12C9.12007 20.56 6.12006 19.6901 3.95006 17.7201ZM19.8901 15.4401L15.4501 19.8801C15.1801 20.1501 14.8 20.28 14.42 20.24C14.04 20.2 13.7001 19.9901 13.5001 19.6601L10.68 15.14C10.37 14.64 10.44 14.01 10.86 13.59L13.61 10.84C13.85 10.6 14.17 10.4701 14.49 10.4701C14.72 10.4701 14.9501 10.5301 15.1501 10.6601L19.67 13.48C20 13.68 20.2101 14.02 20.2501 14.4C20.2901 14.78 20.1601 15.15 19.8901 15.42V15.4401Z" fill="currentColor"/>
</svg>

<svg xmlns="http://www.w3.org/2000/svg" width="24" height="24" fill="none"><path fill="currentColor" d="M21.41 13.25a11.239 11.239 0 0 0-2.59-10.32c-.62-.67-1.55-.87-2.37-.5-.84.37-1.33 1.21-1.25 2.13.03.31.05.62.05.93 0 1.23-.23 2.4-.65 3.48-.75-.03-1.5.24-2.06.8l-2.75 2.75c-.56.56-.83 1.3-.8 2.05-1.39.54-2.93.75-4.41.62-.94-.09-1.76.4-2.14 1.25-.37.83-.17 1.76.5 2.37 2.08 1.89 4.76 2.92 7.56 2.92.91 0 1.83-.12 2.75-.35.31.17.64.29 1 .33.11.01.21.02.32.02.73 0 1.42-.28 1.94-.81l4.44-4.44c.6-.6.88-1.42.79-2.25-.04-.36-.16-.69-.33-.99v.01ZM16.7 4.43c-.04-.42.27-.59.36-.63.11-.05.4-.14.66.14a9.767 9.767 0 0 1 2.54 6.56c0 .5-.05 1-.13 1.51l-4.1-2.56c.48-1.25.73-2.57.73-3.95 0-.36-.02-.71-.05-1.07h-.01ZM3.95 17.72a.551.551 0 0 1-.14-.66c.04-.09.2-.4.63-.36 1.67.15 3.41-.08 5.01-.69l2.57 4.11c-2.9.44-5.9-.43-8.07-2.4Zm15.94-2.28-4.44 4.44c-.27.27-.65.4-1.03.36a1.22 1.22 0 0 1-.92-.58l-2.82-4.52c-.31-.5-.24-1.13.18-1.55l2.75-2.75c.24-.24.56-.37.88-.37.23 0 .46.06.66.19l4.52 2.82a1.247 1.247 0 0 1 .22 1.94v.02Z"/></svg>
